public/img/illustrations/gift.svg

<svg xmlns="http://www.w3.org/2000/svg" data-name="Layer 1" width="856.74612" height="690.55273" viewBox="0 0 856.74612 690.55273" xmlns:xlink="http://www.w3.org/1999/xlink"><circle cx="241.16712" cy="361.99458" r="97.20043" fill="#e6e6e6"/><path d="M386.53249,608.65667l23.90995,14.81627V523.32127L383.64223,506.714a10.396,10.396,0,0,1-4.53632-6.03867h0a10.39619,10.39619,0,0,1,7.42666,1.37447l23.90995,14.81627V478.03017a91.88994,91.88994,0,0,1,2.74357-22.28622,91.887,91.887,0,0,1,2.74356,22.28622v63.38739l35.27393-21.85809a17.28621,17.28621,0,0,1,9.38854-2.59016,17.287,17.287,0,0,1-6.49828,7.25439l-38.16433,23.64908V784.72363h-5.4871V629.92821L383.6422,613.321a10.396,10.396,0,0,1-4.53631-6.03865h0A10.39632,10.39632,0,0,1,386.53249,608.65667Z" transform="translate(-171.62694 -104.72363)" fill="#ccc"/><circle cx="97.20043" cy="370.24744" r="97.20043" fill="#e6e6e6"/><path d="M295.089,616.90953,271.179,631.7258V531.57413l26.8002-16.60725a10.396,10.396,0,0,0,4.53633-6.03868h0a10.3963,10.3963,0,0,0-7.42666,1.37447l-23.91,14.81625V486.283a91.889,91.889,0,0,0-2.74357-22.28622,91.88751,91.88751,0,0,0-2.74355,22.28622v63.3874L230.418,527.81233a17.28624,17.28624,0,0,0-9.38856-2.59015,17.287,17.287,0,0,0,6.4983,7.25439l38.16417,23.64913V785.24651H271.179V638.18108l26.80019-16.60726a10.39591,10.39591,0,0,0,4.53633-6.03864h0A10.39645,10.39645,0,0,0,295.089,616.90953Z" transform="translate(-171.62694 -104.72363)" fill="#ccc"/><circle cx="167.80827" cy="167.35454" r="167.35454" fill="#e6e6e6"/><path d="M384.651,516.46034l-41.16685,25.50985V369.53432l46.14314-28.59343a17.89922,17.89922,0,0,0,7.81049-10.39707l.00008-.00008h-.00008a17.89974,17.89974,0,0,0-12.78675,2.36648l-41.16685,25.50983V291.55453a158.21125,158.21125,0,0,0-4.72373-38.37124,158.20777,158.20777,0,0,0-4.7237,38.37124v109.137L273.304,363.05739a29.76333,29.76333,0,0,0-16.16471-4.45962,29.76342,29.76342,0,0,0,11.18843,12.4902l65.709,40.71779V785.61383h9.44743V553.08444L389.62731,524.491a17.89918,17.89918,0,0,0,7.8105-10.39707l.00008-.00006h-.00008A17.89976,17.89976,0,0,0,384.651,516.46034Z" transform="translate(-171.62694 -104.72363)" fill="#ccc"/><rect x="66.74612" y="680" width="790" height="2" fill="#3f3d56"/><rect x="793.99423" y="414.94336" width="45.27441" height="45.27444" transform="translate(-281.00936 362.21678) rotate(-30)" fill="#ff6584"/><path d="M825.415,476.67554l-23.6377-40.94141,40.94141-23.63721,23.6377,40.9419Zm-20.90527-40.209,21.63769,37.47656L863.624,452.30639l-21.63769-37.47705Z" transform="translate(-171.62694 -104.72363)" fill="#2f2e41"/><circle cx="617.1084" cy="462.9685" r="19" fill="#d0cde1"/><path d="M802.73533,587.69214a20,20,0,1,1,20-20A20,20,0,0,1,802.73533,587.69214Zm0-38a18,18,0,1,0,18,18A18,18,0,0,0,802.73533,549.69214Z" transform="translate(-171.62694 -104.72363)" fill="#2f2e41"/><path d="M908.59718,789.27246h-184a8.50982,8.50982,0,0,1-8.5-8.5v-171a8.50982,8.50982,0,0,1,8.5-8.5h184a8.50982,8.50982,0,0,1,8.5,8.5v171A8.50982,8.50982,0,0,1,908.59718,789.27246Z" transform="translate(-171.62694 -104.72363)" fill="#dd2b46"/><path d="M829.59572,795.27637h-26a8.50981,8.50981,0,0,1-8.5-8.5v-182.084a8.50981,8.50981,0,0,1,8.5-8.5h26a8.50982,8.50982,0,0,1,8.5,8.5v182.084A8.50982,8.50982,0,0,1,829.59572,795.27637Z" transform="translate(-171.62694 -104.72363)" fill="#3f3d56"/><path d="M957.48374,584.34521c-1.075,17.64038-24.9038,30.54175-24.9038,30.54175s-22.086-15.69934-21.011-33.33972,24.90381-30.54175,24.90381-30.54175S958.5587,566.70483,957.48374,584.34521Z" transform="translate(-171.62694 -104.72363)" fill="#3f3d56"/><path d="M958.563,639.38428c-17.64368-1.0199-30.61939-24.80835-30.61939-24.80835s15.63037-22.13489,33.274-21.115S991.837,618.26929,991.837,618.26929,976.20665,640.40417,958.563,639.38428Z" transform="translate(-171.62694 -104.72363)" fill="#3f3d56"/><polygon points="744.97 517.469 744.97 582.749 680.04 497.049 729.5 497.049 744.97 517.469" opacity="0.1" style="isolation:isolate"/><path d="M971.71925,733.9375a8.489,8.489,0,0,1-6.78467-3.36328L829.66017,552.0332a8.5,8.5,0,0,1,1.6416-11.9082l19.92676-15.09766a8.49846,8.49846,0,0,1,11.90771,1.64258L998.41066,705.21a8.5,8.5,0,0,1-1.6416,11.9082L976.8423,732.21582A8.45354,8.45354,0,0,1,971.71925,733.9375Z" transform="translate(-171.62694 -104.72363)" fill="#dd2b46"/><rect x="891.91929" y="603.8247" width="43" height="43" transform="translate(-363.89101 573.79961) rotate(-37.15004)" fill="#3f3d56"/><rect x="734.6333" y="469.68471" width="45.27444" height="45.27441" transform="translate(-85.89891 991.64315) rotate(-75)" fill="#d0cde1"/><path d="M754.72557,526.58471l-45.66309-12.23535,12.23535-45.66406,45.66309,12.23535ZM711.5117,512.9353l41.7998,11.2002,11.2002-41.80079-41.79981-11.20019Z" transform="translate(-171.62694 -104.72363)" fill="#2f2e41"/><path d="M562.376,632.723a11.38228,11.38228,0,0,0-1.1652-17.41438L542.847,467.27838,519.12064,474.333l25.61477,144.05863A11.44393,11.44393,0,0,0,562.376,632.723Z" transform="translate(-171.62694 -104.72363)" fill="#ffb8b8"/><polygon points="412.742 669.489 426.619 669.489 433.224 615.964 412.742 615.964 412.742 669.489" fill="#ffb8b8"/><path d="M581.39569,770.24806h43.61336a0,0,0,0,1,0,0v16.85062a0,0,0,0,1,0,0H596.70481a15.30912,15.30912,0,0,1-15.30912-15.30912v-1.54149A0,0,0,0,1,581.39569,770.24806Z" transform="translate(1034.7778 1452.62311) rotate(-180)" fill="#2f2e41"/><polygon points="316.779 647.875 329.786 652.713 354.636 604.848 335.44 597.707 316.779 647.875" fill="#ffb8b8"/><path d="M482.69612,754.91941h43.61336a0,0,0,0,1,0,0V771.77a0,0,0,0,1,0,0H498.00524a15.30912,15.30912,0,0,1-15.30912-15.30912v-1.54149A0,0,0,0,1,482.69612,754.91941Z" transform="translate(539.60105 1549.95881) rotate(-159.59643)" fill="#2f2e41"/><circle cx="387.84812" cy="297.88794" r="26.2388" fill="#ffb8b8"/><path d="M518.43419,469.95338c-.82162-24.16818,24.579-40.93443,45.95011-29.61853,2.72287,1.44175,30.8376,25.32762,31.89714,40.1611s3.1786,39.20276,3.1786,39.20276L629.127,741.14134l-63.572-3.1786,7.67745-64.59821-41.32183,65.69111-50.05882-15.92638,61.453-176.9422S519.67932,506.57933,518.43419,469.95338Z" transform="translate(-171.62694 -104.72363)" fill="#2f2e41"/><path d="M518.93464,478.36717l4.0822,53.06862a2.20607,2.20607,0,0,0,2.19957,2.03686H543.1781a2.20606,2.20606,0,0,0,2.03729-3.05232L523.1715,477.35172A2.20606,2.20606,0,0,0,518.93464,478.36717Z" transform="translate(-171.62694 -104.72363)" fill="#2f2e41"/><path d="M611.17541,623.52774a11.38225,11.38225,0,0,0-3.1952-17.15835l-35.56155-144.8639-22.73772,9.78285,42.29787,140.071a11.44393,11.44393,0,0,0,19.1966,12.16835Z" transform="translate(-171.62694 -104.72363)" fill="#ffb8b8"/><path d="M552.84054,448.70992s-7.41674,14.83348,0,41.32183S565.555,538.77032,565.555,538.77032s16.95254-10.59534,24.36928-7.41674S578.192,460.74269,578.192,460.74269,566.61448,435.99552,552.84054,448.70992Z" transform="translate(-171.62694 -104.72363)" fill="#2f2e41"/><path d="M565.63205,406.70588c.35442-5.44444,7.22306-5.631,12.67879-5.68255s11.97836.14321,15.0654-4.35543c2.0401-2.973,1.65041-7.10032-.035-10.28779s-4.45773-5.639-7.18509-7.99742c-7.04139-6.08883-14.29842-12.12936-22.7522-16.02662s-18.36045-5.472-27.12787-2.3435c-10.77008,3.84308-25.32927,23.62588-26.5865,34.99176s3.28506,22.95252,10.94189,31.44586,25.18188,5.0665,36.21069,8.088c-6.7049-9.48964-2.2854-26.73257,8.45573-31.164Z" transform="translate(-171.62694 -104.72363)" fill="#2f2e41"/></svg>

<?xml version="1.0" encoding="UTF-8" standalone="no"?>
<!DOCTYPE svg PUBLIC "-//W3C//DTD SVG 1.1//EN" "http://www.w3.org/Graphics/SVG/1.1/DTD/svg11.dtd">
<svg width="100%" height="100%" viewBox="0 0 857 691" version="1.1" xmlns="http://www.w3.org/2000/svg" xmlns:xlink="http://www.w3.org/1999/xlink" xml:space="preserve" xmlns:serif="http://www.serif.com/" style="fill-rule:evenodd;clip-rule:evenodd;stroke-linejoin:round;stroke-miterlimit:2;">
    <circle cx="241.167" cy="361.995" r="97.2" style="fill:rgb(230,230,230);"/>
    <g transform="matrix(1,0,0,1,-171.627,-104.724)">
        <path d="M386.532,608.657L410.442,623.473L410.442,523.321L383.642,506.714C381.427,505.341 379.807,503.185 379.106,500.675C381.665,500.186 384.318,500.677 386.533,502.05L410.443,516.866L410.443,478.03C410.443,470.517 411.364,463.033 413.186,455.744C415.008,463.033 415.93,470.517 415.93,478.03L415.93,541.418L451.204,519.559C454.02,517.814 457.279,516.915 460.592,516.969C459.166,519.96 456.91,522.479 454.094,524.224L415.93,547.873L415.93,784.724L410.442,784.724L410.442,629.928L383.642,613.321C381.427,611.948 379.807,609.792 379.106,607.282C381.665,606.793 384.317,607.284 386.532,608.657Z" style="fill:rgb(204,204,204);fill-rule:nonzero;"/>
    </g>
    <circle cx="97.2" cy="370.247" r="97.2" style="fill:rgb(230,230,230);"/>
    <g transform="matrix(1,0,0,1,-171.627,-104.724)">
        <path d="M295.089,616.91L271.179,631.726L271.179,531.574L297.979,514.967C300.194,513.594 301.814,511.438 302.516,508.928C299.956,508.439 297.304,508.93 295.089,510.303L271.179,525.119L271.179,486.283C271.179,478.77 270.257,471.285 268.435,463.997C266.613,471.285 265.692,478.77 265.692,486.283L265.692,549.67L230.418,527.812C227.602,526.067 224.342,525.168 221.029,525.222C222.455,528.213 224.711,530.731 227.528,532.477L265.692,556.126L265.692,785.247L271.179,785.247L271.179,638.181L297.979,621.574C300.194,620.201 301.814,618.045 302.516,615.535C299.956,615.046 297.304,615.537 295.089,616.91Z" style="fill:rgb(204,204,204);fill-rule:nonzero;"/>
    </g>
    <circle cx="167.808" cy="167.355" r="167.355" style="fill:rgb(230,230,230);"/>
    <g transform="matrix(1,0,0,1,-171.627,-104.724)">
        <path d="M384.651,516.46L343.484,541.97L343.484,369.534L389.627,340.941C393.441,338.578 396.23,334.865 397.438,330.544L397.438,330.544L397.438,330.544C393.031,329.702 388.465,330.547 384.651,332.91L343.484,358.42L343.484,291.555C343.484,278.619 341.898,265.732 338.76,253.183C335.623,265.732 334.037,278.619 334.037,291.555L334.037,400.692L273.304,363.057C268.455,360.053 262.843,358.504 257.139,358.598C259.594,363.747 263.479,368.083 268.328,371.088L334.037,411.806L334.037,785.614L343.484,785.614L343.484,553.084L389.627,524.491C393.441,522.128 396.23,518.415 397.438,514.094L397.438,514.094L397.438,514.094C393.031,513.252 388.465,514.097 384.651,516.46Z" style="fill:rgb(204,204,204);fill-rule:nonzero;"/>
    </g>
    <rect x="66.746" y="680" width="790" height="2" style="fill:rgb(63,61,86);"/>
    <g transform="matrix(0.866025,-0.5,0.5,0.866025,-281.009,362.217)">
        <rect x="793.994" y="414.943" width="45.274" height="45.274" style="fill:rgb(61,131,246);"/>
    </g>
    <g transform="matrix(1,0,0,1,-171.627,-104.724)">
        <path d="M825.415,476.676L801.777,435.734L842.719,412.097L866.356,453.039L825.415,476.676ZM804.51,436.467L826.147,473.943L863.624,452.306L841.986,414.829L804.51,436.467Z" style="fill:rgb(47,46,65);fill-rule:nonzero;"/>
    </g>
    <circle cx="617.108" cy="462.969" r="19" style="fill:rgb(61,131,246);fill-opacity:0.5;"/>
    <g transform="matrix(1,0,0,1,-171.627,-104.724)">
        <path d="M802.735,587.692C791.764,587.692 782.735,578.664 782.735,567.692C782.735,556.72 791.764,547.692 802.735,547.692C813.707,547.692 822.735,556.72 822.735,567.692C822.735,578.664 813.707,587.692 802.735,587.692ZM802.735,549.692C792.861,549.692 784.735,557.818 784.735,567.692C784.735,577.567 792.861,585.692 802.735,585.692C812.61,585.692 820.735,577.567 820.735,567.692C820.735,557.818 812.61,549.692 802.735,549.692Z" style="fill:rgb(47,46,65);fill-rule:nonzero;"/>
    </g>
    <g transform="matrix(1,0,0,1,-171.627,-104.724)">
        <path d="M908.597,789.272L724.597,789.272C719.936,789.267 716.103,785.433 716.097,780.772L716.097,609.772C716.103,605.112 719.936,601.278 724.597,601.272L908.597,601.272C913.258,601.278 917.092,605.112 917.097,609.772L917.097,780.772C917.092,785.433 913.258,789.267 908.597,789.272Z" style="fill:rgb(221,43,70);fill-rule:nonzero;"/>
    </g>
    <g transform="matrix(1,0,0,1,-171.627,-104.724)">
        <path d="M829.596,795.276L803.596,795.276C798.935,795.271 795.101,791.437 795.096,786.776L795.096,604.692C795.101,600.031 798.935,596.198 803.596,596.192L829.596,596.192C834.257,596.198 838.09,600.031 838.096,604.692L838.096,786.776C838.09,791.437 834.257,795.271 829.596,795.276Z" style="fill:rgb(63,61,86);fill-rule:nonzero;"/>
    </g>
    <g transform="matrix(1,0,0,1,-171.627,-104.724)">
        <path d="M957.484,584.345C956.409,601.986 932.58,614.887 932.58,614.887C932.58,614.887 910.494,599.188 911.569,581.547C912.644,563.907 936.473,551.005 936.473,551.005C936.473,551.005 958.559,566.705 957.484,584.345Z" style="fill:rgb(63,61,86);fill-rule:nonzero;"/>
    </g>
    <g transform="matrix(1,0,0,1,-171.627,-104.724)">
        <path d="M958.563,639.384C940.919,638.364 927.944,614.576 927.944,614.576C927.944,614.576 943.574,592.441 961.218,593.461C978.861,594.481 991.837,618.269 991.837,618.269C991.837,618.269 976.207,640.404 958.563,639.384Z" style="fill:rgb(63,61,86);fill-rule:nonzero;"/>
    </g>
    <path d="M744.97,517.469L744.97,582.749L680.04,497.049L729.5,497.049L744.97,517.469Z" style="fill-opacity:0.1;fill-rule:nonzero;"/>
    <g transform="matrix(1,0,0,1,-171.627,-104.724)">
        <path d="M971.719,733.938C969.057,733.943 966.542,732.696 964.935,730.574L829.66,552.033C828.541,550.556 827.935,548.753 827.935,546.9C827.935,544.241 829.183,541.731 831.302,540.125L851.229,525.027C852.705,523.908 854.508,523.302 856.361,523.302C859.02,523.302 861.531,524.55 863.136,526.67L998.411,705.21C999.53,706.687 1000.14,708.49 1000.14,710.343C1000.14,713.002 998.888,715.513 996.769,717.118L976.842,732.216C975.369,733.335 973.569,733.94 971.719,733.938Z" style="fill:rgb(221,43,70);fill-rule:nonzero;"/>
    </g>
    <g transform="matrix(0.797057,-0.603904,0.603904,0.797057,-363.891,573.8)">
        <rect x="891.919" y="603.825" width="43" height="43" style="fill:rgb(63,61,86);"/>
    </g>
    <g transform="matrix(0.258819,-0.965926,0.965926,0.258819,-85.8989,991.643)">
        <rect x="734.633" y="469.685" width="45.274" height="45.274" style="fill:rgb(61,131,246);fill-opacity:0.7;"/>
    </g>
    <g transform="matrix(1,0,0,1,-171.627,-104.724)">
        <path d="M754.726,526.585L709.062,514.349L721.298,468.685L766.961,480.921L754.726,526.585ZM711.512,512.935L753.312,524.135L764.512,482.335L722.712,471.135L711.512,512.935Z" style="fill:rgb(47,46,65);fill-rule:nonzero;"/>
    </g>
    <g transform="matrix(1,0,0,1,-171.627,-104.724)">
        <path d="M562.376,632.723C564.616,630.577 565.884,627.606 565.884,624.504C565.884,620.871 564.145,617.45 561.211,615.309L542.847,467.278L519.121,474.333L544.735,618.392C543.577,620.222 542.962,622.344 542.962,624.511C542.962,630.789 548.128,635.954 554.406,635.954C557.381,635.954 560.241,634.795 562.376,632.723Z" style="fill:rgb(255,184,184);fill-rule:nonzero;"/>
    </g>
    <path d="M412.742,669.489L426.619,669.489L433.224,615.964L412.742,615.964L412.742,669.489Z" style="fill:rgb(255,184,184);fill-rule:nonzero;"/>
    <g transform="matrix(-1,7.65714e-16,-7.65714e-16,-1,1034.78,1452.62)">
        <path d="M581.396,770.248L625.009,770.248L625.009,787.099L596.705,787.099C588.306,787.099 581.396,780.188 581.396,771.79L581.396,770.248Z" style="fill:rgb(47,46,65);fill-rule:nonzero;"/>
    </g>
    <path d="M316.779,647.875L329.786,652.713L354.636,604.848L335.44,597.707L316.779,647.875Z" style="fill:rgb(255,184,184);fill-rule:nonzero;"/>
    <g transform="matrix(-0.93726,-0.34863,0.34863,-0.93726,539.601,1549.96)">
        <path d="M482.696,754.919L526.309,754.919L526.309,771.77L498.005,771.77C489.607,771.77 482.696,764.859 482.696,756.461L482.696,754.919L482.696,754.919Z" style="fill:rgb(47,46,65);fill-rule:nonzero;"/>
    </g>
    <circle cx="387.848" cy="297.888" r="26.239" style="fill:rgb(255,184,184);"/>
    <g transform="matrix(1,0,0,1,-171.627,-104.724)">
        <path d="M518.434,469.953C517.613,445.785 543.013,429.019 564.384,440.335C567.107,441.777 595.222,465.662 596.281,480.496C597.341,495.329 599.46,519.699 599.46,519.699L629.127,741.141L565.555,737.963L573.232,673.365L531.911,739.056L481.852,723.129L543.305,546.187C543.305,546.187 519.679,506.579 518.434,469.953Z" style="fill:rgb(47,46,65);fill-rule:nonzero;"/>
    </g>
    <g transform="matrix(1,0,0,1,-171.627,-104.724)">
        <path d="M518.935,478.367L523.017,531.436C523.105,532.579 524.07,533.473 525.216,533.473L543.178,533.473C544.388,533.473 545.384,532.477 545.384,531.267C545.384,530.976 545.327,530.689 545.215,530.42L523.172,477.352C522.83,476.53 522.024,475.992 521.134,475.992C519.924,475.992 518.928,476.988 518.928,478.198C518.928,478.254 518.93,478.311 518.935,478.367Z" style="fill:rgb(47,46,65);fill-rule:nonzero;"/>
    </g>
    <g transform="matrix(1,0,0,1,-171.627,-104.724)">
        <path d="M611.175,623.528C612.856,621.489 613.776,618.928 613.776,616.286C613.776,612.182 611.556,608.384 607.98,606.369L572.419,461.505L549.681,471.288L591.979,611.359C591.239,612.903 590.855,614.593 590.855,616.304C590.855,622.582 596.021,627.748 602.299,627.748C605.74,627.748 609.004,626.196 611.175,623.528L611.175,623.528Z" style="fill:rgb(255,184,184);fill-rule:nonzero;"/>
    </g>
    <g transform="matrix(1,0,0,1,-171.627,-104.724)">
        <path d="M552.841,448.71C552.841,448.71 545.424,463.543 552.841,490.032C560.257,516.52 565.555,538.77 565.555,538.77C565.555,538.77 582.508,528.175 589.924,531.354C597.341,534.532 578.192,460.743 578.192,460.743C578.192,460.743 566.614,435.996 552.841,448.71Z" style="fill:rgb(47,46,65);fill-rule:nonzero;"/>
    </g>
    <g transform="matrix(1,0,0,1,-171.627,-104.724)">
        <path d="M565.632,406.706C565.986,401.261 572.855,401.075 578.311,401.023C583.767,400.972 590.289,401.167 593.376,396.668C595.416,393.695 595.027,389.568 593.341,386.38C591.656,383.193 588.884,380.741 586.156,378.383C579.115,372.294 571.858,366.253 563.404,362.356C554.95,358.459 545.044,356.884 536.276,360.013C525.506,363.856 510.947,383.638 509.69,395.004C508.432,406.37 512.975,417.957 520.631,426.45C528.288,434.944 545.813,431.517 556.842,434.538C550.137,425.049 554.557,407.806 565.298,403.374L565.632,406.706Z" style="fill:rgb(47,46,65);fill-rule:nonzero;"/>
    </g>
</svg>
